local/templates/.default/frontend/main/images/icons/search-big.svg

<svg width="21" height="22" viewBox="0 0 21 22" fill="none" xmlns="http://www.w3.org/2000/svg">
<path d="M20.6807 20.0385L15.5038 14.5928C16.8349 12.9924 17.5642 10.9788 17.5642 8.88249C17.5642 3.98476 13.6245 0 8.7821 0C3.93973 0 0 3.98476 0 8.88249C0 13.7802 3.93973 17.765 8.7821 17.765C10.6 17.765 12.3324 17.2104 13.8135 16.1576L19.0297 21.6447C19.2477 21.8737 19.5409 22 19.8552 22C20.1526 22 20.4348 21.8853 20.649 21.6768C21.1042 21.2338 21.1187 20.4992 20.6807 20.0385ZM8.7821 2.31717C12.3614 2.31717 15.2732 5.2623 15.2732 8.88249C15.2732 12.5027 12.3614 15.4478 8.7821 15.4478C5.20282 15.4478 2.29098 12.5027 2.29098 8.88249C2.29098 5.2623 5.20282 2.31717 8.7821 2.31717Z" fill="#2D2D2D"/>
</svg>

<svg width="21" height="22" fill="none" xmlns="http://www.w3.org/2000/svg"><path d="M20.68 20.038l-5.176-5.445a8.915 8.915 0 0 0 2.06-5.71C17.564 3.984 13.624 0 8.782 0 3.94 0 0 3.985 0 8.882c0 4.898 3.94 8.883 8.782 8.883a8.62 8.62 0 0 0 5.031-1.607l5.217 5.487a1.133 1.133 0 0 0 1.62.032 1.17 1.17 0 0 0 .03-1.639zM8.783 2.319c3.58 0 6.491 2.944 6.491 6.564s-2.912 6.566-6.49 6.566c-3.58 0-6.492-2.945-6.492-6.566 0-3.62 2.912-6.565 6.491-6.565z" fill="#2D2D2D"/></svg>
